pro/src/icons/full-plus.svg

<svg width="48" height="48" viewBox="0 0 48 48" fill="none" xmlns="http://www.w3.org/2000/svg">
  <g id="icon" fill="currentColor">
    <path d="M26.7037 22.5101C26.7014 24.828 24.8213 26.7052 22.4982 26.7105L22.492 26.7105L6.70882 26.7705C5.21784 26.7755 4.00507 25.574 4.00002 24.0868C3.99496 22.5996 5.20013 21.3898 6.6911 21.3848L21.3053 21.3282L21.3217 6.69022C21.3231 5.20301 22.533 3.99856 24.024 4C25.5149 4.00145 26.7224 5.20831 26.721 6.69546L26.7037 22.5101Z" />
    <path d="M41.2972 26.717L26.7151 26.6978L26.7696 41.299C26.7741 42.7859 25.5695 43.9952 24.0787 44C22.5877 44.0048 21.3751 42.8026 21.3703 41.3154L21.3125 25.5414L21.3125 25.535C21.3021 23.2018 23.1961 21.3133 25.5236 21.311L25.5291 21.311H25.5319L41.3034 21.3313C42.7944 21.333 44.0017 22.54 44 24.0272C43.9983 25.5143 42.7881 26.7185 41.2972 26.717Z" />
  </g>
</svg>

<svg xmlns="http://www.w3.org/2000/svg" width="48" height="48" fill="none"><g id="icon" fill="currentColor"><path d="M26.704 22.51a4.21 4.21 0 0 1-4.206 4.2h-.006l-15.783.06A2.696 2.696 0 0 1 4 24.088a2.697 2.697 0 0 1 2.691-2.702l14.614-.057.017-14.638A2.696 2.696 0 0 1 24.024 4a2.696 2.696 0 0 1 2.697 2.695z"/><path d="m41.297 26.717-14.582-.02.055 14.602A2.696 2.696 0 0 1 24.079 44a2.697 2.697 0 0 1-2.709-2.685l-.058-15.774v-.006a4.21 4.21 0 0 1 4.212-4.224h.008l15.771.02A2.696 2.696 0 0 1 44 24.027a2.697 2.697 0 0 1-2.703 2.69"/></g></svg>
